assets/img/item/why/certificate.svg

<svg width="100" height="100" viewBox="0 0 100 100" fill="none" xmlns="http://www.w3.org/2000/svg">
<path d="M86.8861 2.00665C88.5739 2.00675 90.0676 1.98967 91.5609 2.00987C96.4548 2.07608 99.9685 5.64315 99.991 10.5472C100.016 16.0964 100.266 15.4409 95.0524 15.4593C92.5201 15.4683 89.9878 15.4747 87.4555 15.4885C87.3298 15.4892 87.2045 15.5504 86.7396 15.6728C86.7396 16.3938 86.7396 17.2069 86.7396 18.02C86.7396 38.4115 86.6142 58.8042 86.8209 79.1936C86.8782 84.8437 82.6372 89.2239 77.5436 88.8215C77.359 88.8069 77.1664 88.8932 76.7636 88.977C76.7636 91.393 76.847 93.8462 76.715 96.2877C76.6729 97.0654 76.242 98.1115 75.6468 98.4764C75.1878 98.7578 74.0778 98.3407 73.4596 97.9296C71.7376 96.7846 70.121 95.4811 68.417 94.206C66.6198 95.5464 64.9496 96.8793 63.1791 98.0621C62.6119 98.441 61.5747 98.7687 61.1203 98.4993C60.5467 98.1592 60.0771 97.1986 60.0393 96.4805C59.9101 94.0274 59.9898 91.5634 59.9898 88.7985C59.1205 88.7985 58.3774 88.7985 57.6343 88.7985C41.5952 88.7985 25.5548 88.6828 9.51772 88.8637C4.17898 88.9239 -0.607981 84.8937 0.0630677 79.2805C0.116648 78.8323 0.0681163 78.3721 0.0704894 77.9176C0.0822935 75.658 0.62628 75.106 2.95855 75.0905C5.94546 75.0707 8.9326 75.0877 11.9196 75.0814C12.2987 75.0806 12.6777 75.0353 13.321 74.9934C13.321 74.1796 13.321 73.427 13.321 72.6744C13.321 52.1531 13.3203 31.6317 13.3214 11.1104C13.3217 5.50161 16.8008 2.00897 22.4056 2.008C43.8344 2.00428 65.2631 2.00653 86.8861 2.00665ZM52.0078 75.088C54.6435 75.088 57.2792 75.088 59.9412 75.088C59.9412 74.4337 60.0614 73.9963 59.9215 73.6709C59.073 71.6969 58.1457 69.7569 57.2882 67.7866C57.0079 67.1423 56.5126 66.3157 56.7051 65.7871C57.8008 62.7778 58.4744 59.3058 60.4741 57.0306C62.1382 55.1373 65.3861 54.5405 68.0294 53.6606C68.8477 53.3882 70.0047 54.0084 70.9688 54.3326C72.0359 54.6915 73.0301 55.284 74.1086 55.589C76.1159 56.1565 77.7592 57.8836 78.1679 59.8781C78.3408 60.7224 78.6461 61.5972 79.1144 62.3119C80.3333 64.172 80.3395 66.2777 79.3151 68.1688C78.3265 69.9937 77.0983 71.9115 76.8866 73.8863C76.497 77.522 76.7754 81.2293 76.7754 84.8549C80.8136 85.6077 83.1371 83.6758 83.1389 79.7588C83.1481 59.8265 83.0837 39.8939 83.1865 19.9621C83.2111 15.1833 82.2246 10.2816 84.4755 5.65365C84.1122 5.61315 83.9196 5.57291 83.727 5.57288C63.2121 5.56913 42.6971 5.55615 22.1821 5.57928C18.6783 5.58323 16.9027 7.4952 16.9014 11.1104C16.8942 31.757 16.8969 52.4035 16.9031 73.05C16.9033 73.6722 16.9794 74.2945 17.0313 75.0881C28.6626 75.0881 40.1404 75.0881 52.0078 75.088ZM50.0592 85.2197C53.3355 85.2197 56.6118 85.2197 59.8626 85.2197C59.8626 82.941 59.8626 80.9639 59.8626 79.0143C41.0829 79.0143 22.4306 79.0143 3.79356 79.0143C3.46141 82.2063 4.58546 84.3072 7.05703 84.9663C8.03876 85.2281 9.11223 85.2089 10.1441 85.2101C23.3192 85.2247 36.4943 85.2198 50.0592 85.2197ZM62.2015 60.8026C62.5254 62.0761 62.5163 63.1103 61.1396 63.9428C59.8101 64.7468 59.8944 65.9326 61.2393 66.843C62.2539 67.5299 62.4794 68.3211 62.3115 69.48C62.0643 71.1864 62.7106 71.843 64.3812 71.4281C65.6817 71.1052 66.283 71.6751 66.9387 72.5739C67.8723 73.8536 68.8872 73.8501 69.8224 72.5603C70.4803 71.6529 71.0944 71.1123 72.3867 71.4317C74.0533 71.8435 74.7219 71.162 74.4303 69.4667C74.2255 68.2765 74.5384 67.5268 75.5202 66.8423C76.8659 65.9043 76.8971 64.8296 75.5754 63.9543C74.5672 63.2866 74.2214 62.5767 74.4298 61.3725C74.7216 59.6852 74.1021 59.2633 72.4291 59.2061C71.545 59.1758 70.4845 58.7561 69.8501 58.1497C68.616 56.9702 68.1406 56.9828 66.8798 58.1898C66.2507 58.792 65.1412 58.8696 64.2865 59.2655C63.5682 59.5983 62.9043 60.0485 62.2015 60.8026ZM63.5111 84.1537C63.5111 87.109 63.5111 90.0644 63.5111 93.3724C64.6916 92.5042 65.6561 91.8906 66.5067 91.1468C67.7817 90.0321 68.9412 89.905 70.2508 91.1122C71.082 91.8784 72.0684 92.4764 73.1078 93.2399C73.1078 87.1158 73.1078 81.2172 73.1078 74.7661C69.9092 77.8367 66.8452 77.832 63.5111 74.6411C63.5111 78.13 63.5111 80.947 63.5111 84.1537ZM95.6582 7.71415C93.895 5.66316 91.7408 5.04278 89.6781 5.99201C87.4402 7.02185 86.4996 9.01087 86.9798 11.8028C90.0419 11.8028 93.1169 11.8028 96.5997 11.8028C96.3118 10.4164 96.0596 9.20202 95.6582 7.71415Z" fill="#0769CD"/>
<path d="M36.6105 35.585C36.6103 34.8982 36.6103 34.3908 36.6103 33.7472C49.5029 33.7472 62.2466 33.7472 75.0954 33.7472C75.0954 34.8351 75.0954 35.8416 75.0954 37.0076C74.4814 37.0522 73.9184 37.1285 73.3554 37.1288C61.7331 37.1358 50.1108 37.1339 38.4884 37.1343C37.5281 37.1344 36.4005 37.3675 36.6105 35.585Z" fill="#0769CD"/>
<path d="M44.409 50.1413C49.1291 50.1413 53.6544 50.1413 58.3118 50.1413C58.3118 51.4699 58.3118 52.5871 58.3118 53.8184C47.2274 53.8184 36.2294 53.8184 25.0586 53.8184C25.0586 52.694 25.0586 51.5729 25.0586 50.1413C31.4247 50.1413 37.8194 50.1413 44.409 50.1413Z" fill="#0769CD"/>
<path d="M37.7977 23.5975C47.5162 23.5975 57.042 23.5975 66.7125 23.5975C66.7125 24.8497 66.7125 25.9083 66.7125 27.0394C55.5638 27.0394 44.5485 27.0394 33.4111 27.0394C33.4111 25.8974 33.4111 24.8389 33.4111 23.5975C34.9073 23.5975 36.2562 23.5975 37.7977 23.5975Z" fill="#0769CD"/>
<path d="M58.4391 41.9572C64.0613 41.9573 69.4887 41.9573 75.059 41.9573C75.059 43.2049 75.059 44.2615 75.059 45.419C65.602 45.419 56.1786 45.419 46.6251 45.419C46.5816 44.7488 46.5676 44.1811 46.5036 43.6192C46.3616 42.3741 46.8398 41.9018 48.1421 41.9316C51.5079 42.0085 54.8767 41.9572 58.4391 41.9572Z" fill="#0769CD"/>
<path d="M42.0706 58.5941C45.9532 58.5941 49.6408 58.5941 53.4494 58.5941C53.4494 59.8325 53.4494 60.8938 53.4494 62.0076C43.911 62.0076 34.5247 62.0076 25.0156 62.0076C25.0156 60.9031 25.0156 59.8954 25.0156 58.5941C30.6341 58.5941 36.2549 58.5941 42.0706 58.5941Z" fill="#0769CD"/>
<path d="M29.6145 45.5314C28.0059 45.5313 26.5895 45.5313 25.0312 45.5313C25.0312 44.3189 25.0312 43.2679 25.0312 42.0869C31.1973 42.0869 37.3086 42.0869 43.5275 42.0869C43.5275 43.2126 43.5275 44.2215 43.5275 45.5315C38.9416 45.5315 34.3742 45.5315 29.6145 45.5314Z" fill="#0769CD"/>
<path d="M42.478 18.9318C41.0618 18.9318 39.8372 18.9318 38.4775 18.9318C38.4775 17.6959 38.4775 16.6267 38.4775 15.4257C42.8708 15.4257 47.1876 15.4257 51.6599 15.4257C51.6599 16.4664 51.6599 17.5315 51.6599 18.9318C48.708 18.9318 45.6888 18.9318 42.478 18.9318Z" fill="#0769CD"/>
<path d="M26.9445 37.1344C26.1972 37.0963 25.6357 37.0583 24.9873 37.0144C24.9873 35.8714 24.9873 34.8694 24.9873 33.7383C27.7911 33.7383 30.5262 33.7383 33.381 33.7383C33.381 34.7878 33.381 35.7923 33.381 37.1344C31.3213 37.1344 29.2258 37.1344 26.9445 37.1344Z" fill="#0769CD"/>
</svg>

<svg width="100" height="100" viewBox="0 0 100 100" fill="none" xmlns="http://www.w3.org/2000/svg"><path d="M86.886 2.007c1.688 0 3.182-.017 4.675.003 4.894.066 8.407 3.633 8.43 8.537.025 5.55.275 4.894-4.939 4.912-2.532.01-5.064.016-7.597.03-.125 0-.25.061-.715.184v2.347c0 20.391-.126 40.784.08 61.174.058 5.65-4.183 10.03-9.276 9.627-.185-.014-.378.072-.78.156 0 2.416.083 4.87-.049 7.31-.042.778-.473 1.825-1.068 2.19-.46.28-1.57-.136-2.187-.547-1.722-1.145-3.339-2.449-5.043-3.724-1.797 1.34-3.467 2.673-5.238 3.856-.567.379-1.604.707-2.059.437-.573-.34-1.043-1.3-1.08-2.018-.13-2.454-.05-4.918-.05-7.682h-2.356c-16.039 0-32.08-.116-48.116.065-5.339.06-10.126-3.97-9.455-9.584.054-.448.005-.908.007-1.362.012-2.26.556-2.812 2.889-2.828 2.986-.02 5.974-.002 8.96-.009.38 0 .759-.046 1.402-.088V11.11c0-5.608 3.48-9.101 9.085-9.102 21.428-.004 42.857-.001 64.48-.001zM52.008 75.088h7.933c0-.654.12-1.092-.02-1.417-.848-1.974-1.775-3.914-2.633-5.884-.28-.645-.775-1.471-.583-2 1.096-3.01 1.77-6.481 3.77-8.756 1.663-1.894 4.911-2.49 7.554-3.37.819-.273 1.976.347 2.94.672 1.067.358 2.061.951 3.14 1.256 2.007.568 3.65 2.295 4.059 4.29.173.843.478 1.718.946 2.433 1.22 1.86 1.225 3.966.201 5.857-.989 1.825-2.217 3.743-2.428 5.717-.39 3.636-.112 7.343-.112 10.969 4.039.753 6.362-1.18 6.364-5.096.01-19.932-.055-39.865.047-59.797.025-4.779-.961-9.68 1.29-14.308-.364-.04-.556-.081-.749-.081-20.515-.004-41.03-.017-61.545.006-3.504.004-5.28 1.916-5.28 5.531-.008 20.647-.005 41.294.001 61.94 0 .622.076 1.245.128 2.038h34.977zM50.059 85.22h9.804v-6.206H3.793c-.332 3.192.792 5.293 3.264 5.952.982.262 2.055.243 3.087.244 13.175.015 26.35.01 39.915.01zm12.143-24.417c.323 1.273.314 2.307-1.062 3.14-1.33.804-1.246 1.99.1 2.9 1.014.687 1.24 1.478 1.072 2.637-.248 1.706.399 2.363 2.07 1.948 1.3-.323 1.901.247 2.557 1.146.933 1.28 1.948 1.276 2.883-.014.658-.907 1.272-1.448 2.565-1.128 1.666.412 2.335-.27 2.043-1.965-.205-1.19.108-1.94 1.09-2.625 1.346-.938 1.377-2.012.055-2.888-1.008-.667-1.354-1.377-1.145-2.581.292-1.688-.328-2.11-2-2.167-.885-.03-1.946-.45-2.58-1.056-1.234-1.18-1.71-1.167-2.97.04-.63.602-1.739.68-2.593 1.076-.719.332-1.383.782-2.086 1.537zm1.31 23.35v9.22c1.18-.869 2.144-1.482 2.995-2.226 1.275-1.115 2.434-1.242 3.744-.035.831.766 1.817 1.364 2.857 2.128V74.766c-3.199 3.07-6.263 3.066-9.597-.125v9.513zM95.657 7.715c-1.763-2.05-3.917-2.671-5.98-1.722-2.238 1.03-3.178 3.019-2.698 5.81h9.62c-.288-1.386-.54-2.6-.942-4.088z" fill="#0769CD"/><path d="M36.61 35.585v-1.838h38.485v3.26c-.614.045-1.177.122-1.74.122-11.622.007-23.244.005-34.867.005-.96 0-2.087.233-1.877-1.549zm7.799 14.556h13.903v3.677H25.059v-3.677h19.35zm-6.611-26.543h28.915v3.441H33.41v-3.442h4.387zM58.44 41.957h16.619v3.462H46.625c-.043-.67-.057-1.238-.121-1.8-.142-1.245.336-1.717 1.638-1.687 3.366.076 6.735.025 10.297.025zM42.07 58.594h11.38v3.414H25.015v-3.414H42.07zM29.614 45.531h-4.583v-3.444h18.497v3.444H29.615zm12.864-26.599h-4v-3.506H51.66v3.506h-9.182zM26.945 37.134c-.748-.038-1.31-.076-1.958-.12v-3.276h8.394v3.396h-6.436z" fill="#0769CD"/></svg>
